X:7861
T:Horch, was kommt von drau\ssen rein
C:anon.
O:Germany
Z:Transcribed by Frank Nordberg - http://www.musicaviva.com
F:http://abc.musicaviva.com/tunes/germany/horch-was-kommt.abc
M:2/4
L:1/8
K:D
DEFG|ABA2|GEc2|AFd2|DEFG|ABA2|GEce|d4|
B2B2|d2cB|A2F2|A4|G2E2|c4|A2F2|d4|
B2B2|d2cB|A2F2|A4|G2E2|c2e2|d4-|d2z2|]
W:
W:
W:  From Musica Viva - http://www.musicaviva.com
W:  the Internet center for free sheet music downloads.
